24x24/actions/object-ungroup-pop-selection.svg

<svg height="24" width="24" xmlns="http://www.w3.org/2000/svg"><g fill="#8b9cbe" transform="translate(4 4)"><path d="m2 4c-1.108 0-2 .892-2 2v8c0 1.108.892 2 2 2h8c1.108 0 2-.892 2-2v-1h-1v-2h-2v2h-6v-6h2v-2h-2v-1z" opacity=".3"/><path d="m6 0c-2 0-2 2-2 2v2h2v-2h2v-2zm6 0v2h2v2h2v-2c0-2-2-2-2-2zm-8 8v2c0 2 2 2 2 2h2v-2h-2v-2zm10 0v2h-2v2h2c2 0 2-2 2-2v-2zm0-2a4 4 0 0 1 -4 4 4 4 0 0 1 -4-4 4 4 0 0 1 4-4 4 4 0 0 1 4 4z"/></g></svg>

<svg xmlns="http://www.w3.org/2000/svg" width="24" height="24"><defs><style id="current-color-scheme" type="text/css">.ColorScheme-Text{color:#8b9cbe}</style></defs><path style="fill:currentColor;opacity:.3" class="ColorScheme-Text" d="M2 4C.892 4 0 4.892 0 6v8c0 1.108.892 2 2 2h8c1.108 0 2-.892 2-2v-1h-1v-2H9v2H3V7h2V5H3V4H2z" transform="translate(4 4)"/><path style="fill:currentColor" class="ColorScheme-Text" d="M6 0C4 0 4 2 4 2v2h2V2h2V0zm6 0v2h2v2h2V2c0-2-2-2-2-2zM4 8v2c0 2 2 2 2 2h2v-2H6V8zm10 0v2h-2v2h2c2 0 2-2 2-2V8zm0-2a4 4 0 0 1-4 4 4 4 0 0 1-4-4 4 4 0 0 1 4-4 4 4 0 0 1 4 4z" transform="translate(4 4)"/></svg>
